X: 20908
T: Joshua James Ballad Of A Tiny Man
R: jig
M: 6/8
K: Dmajor
d3 A2 d|BBB A2 B|AAA BBB|ccc ddd|
ddd A2 d|BBB A2 B|AAA cfe|1 d3 f3:|2 d3 d2||
|:f|a3 faf|efe d2 B|AAA BBB|fed e2 f|
[1 a3 faf|efe d2 B|AAA cfe|d3 d2:|
[2 a2 A ddd|BBB A2 B|AAA cfe|d3 d2||
|:A|BBB A2 B|AdB ABB|BBB Add|fed e2 f|
BBB A2 B|AdB ABB|AAA cfe|d3 d2:|
f|a2 f afd|Bfd afd|AfA aAf|fed e2 f|
a2 f afd|Bfd afd|AAA cfe|d3 d2|f|
a2 f afd|Bfd afd|AfA a2 A|fed e2 f|
AAA BBB|ddd fec|aaa ccc|fec d3||

